Sweet-Rainbow/icons/electronic-wechat.svg

<?xml version="1.0" encoding="UTF-8" standalone="no"?>
<!-- Generator: Gravit.io -->

<svg
   xmlns:dc="http://purl.org/dc/elements/1.1/"
   xmlns:cc="http://creativecommons.org/ns#"
   xmlns:rdf="http://www.w3.org/1999/02/22-rdf-syntax-ns#"
   xmlns:svg="http://www.w3.org/2000/svg"
   xmlns="http://www.w3.org/2000/svg"
   xmlns:sodipodi="http://sodipodi.sourceforge.net/DTD/sodipodi-0.dtd"
   xmlns:inkscape="http://www.inkscape.org/namespaces/inkscape"
   style="isolation:isolate"
   viewBox="0 0 36 36"
   width="48"
   height="48"
   version="1.1"
   id="svg9"
   sodipodi:docname="electronic-wechat.svg"
   inkscape:version="0.92.4 (5da689c313, 2019-01-14)">
  <metadata
     id="metadata15">
    <rdf:RDF>
      <cc:Work
         rdf:about="">
        <dc:format>image/svg+xml</dc:format>
        <dc:type
           rdf:resource="http://purl.org/dc/dcmitype/StillImage" />
        <dc:title></dc:title>
      </cc:Work>
    </rdf:RDF>
  </metadata>
  <defs
     id="defs13" />
  <sodipodi:namedview
     pagecolor="#ffffff"
     bordercolor="#666666"
     borderopacity="1"
     objecttolerance="10"
     gridtolerance="10"
     guidetolerance="10"
     inkscape:pageopacity="0"
     inkscape:pageshadow="2"
     inkscape:window-width="640"
     inkscape:window-height="480"
     id="namedview11"
     showgrid="false"
     inkscape:zoom="29.365243"
     inkscape:cx="25.325443"
     inkscape:cy="32"
     inkscape:current-layer="svg9"
     units="px" />
  <linearGradient
     id="_lgradient_7"
     x1="0.061897106"
     y1="0.14716151"
     x2="0.99042481"
     y2="0.98658085"
     gradientTransform="matrix(43.198,0,0,43.886,2.462,2.057)"
     gradientUnits="userSpaceOnUse">
    <stop
       offset="0%"
       stop-opacity="1"
       style="stop-color:rgb(22,181,228)"
       id="stop2" />
    <stop
       offset="98.26086956521739%"
       stop-opacity="1"
       style="stop-color:rgb(245,32,250)"
       id="stop4" />
  </linearGradient>
  <g
     id="g826"
     transform="matrix(0.82031414,0,0,0.82031414,-1.7374257,-1.6873863)">
    <path
       id="path7"
       d="M 14.211,42.573 4.688,45.77 C 2.965,46.349 2.048,45.424 2.643,43.706 L 5.814,34.544 5.628,34.226 c -1.9,-3.272 -2.899,-6.983 -2.899,-10.76 0,-5.676 2.262,-11.122 6.269,-15.14 4.019,-4.007 9.464,-6.269 15.141,-6.269 5.336,0 10.474,1.998 14.415,5.588 v 0 c 0.897,0.818 0.961,2.208 0.143,3.102 v 0 c -0.818,0.894 -2.205,0.955 -3.096,0.137 v 0 C 32.461,8.03 28.377,6.449 24.139,6.449 c -4.513,0 -8.839,1.789 -12.033,4.984 -3.195,3.195 -4.985,7.521 -4.985,12.033 0,3.009 0.79,5.951 2.306,8.553 l 0.889,1.9 -0.889,2.272 -1.142,3.448 4.293,-1.032 L 14,38.36 v 0 0 l 2.52,0.9 c 2.41,1.21 5.07,1.84 7.76,1.84 0.69,0 1.37,-0.04 2.06,-0.12 v 0 c 1.093,-0.132 2.085,0.649 2.215,1.745 v 0 c 0.13,1.096 -0.652,2.093 -1.745,2.225 v 0 c -0.84,0.1 -1.68,0.15 -2.53,0.15 -3.32,0 -6.59,-0.78 -9.56,-2.27 z M 40.59,17.47 v 0 c -0.381,-1.038 0.152,-2.187 1.19,-2.565 v 0 c 1.038,-0.378 2.189,0.157 2.57,1.195 v 0 c 0.87,2.38 1.31,4.91 1.31,7.45 0.01,7.07 -3.45,13.7 -9.25,17.74 v 0 c -0.905,0.635 -2.153,0.415 -2.785,-0.49 v 0 c -0.632,-0.905 -0.406,-2.155 0.505,-2.79 v 0 c 4.72,-3.29 7.54,-8.7 7.53,-14.46 0,-2.07 -0.36,-4.13 -1.07,-6.08 z m -18.516,5.996 c 0,-1.655 1.345,-3 3,-3 1.656,0 3,1.345 3,3 0,1.656 -1.344,3 -3,3 -1.655,0 -3,-1.344 -3,-3 z m -10.48,0 c 0,-1.655 1.345,-3 3,-3 1.656,0 3,1.345 3,3 0,1.656 -1.344,3 -3,3 -1.655,0 -3,-1.344 -3,-3 z m 20.96,0 c 0,-1.655 1.345,-3 3,-3 1.656,0 3,1.345 3,3 0,1.656 -1.344,3 -3,3 -1.655,0 -3,-1.344 -3,-3 z"
       style="fill:url(#_lgradient_7);fill-rule:evenodd"
       inkscape:connector-curvature="0" />
  </g>
</svg>

<?xml version="1.0" encoding="UTF-8" standalone="no"?><!-- Generator: Gravit.io --><svg xmlns="http://www.w3.org/2000/svg" xmlns:xlink="http://www.w3.org/1999/xlink" style="isolation:isolate" viewBox="0 0 48 48" width="48pt" height="48pt"><linearGradient id="_lgradient_7" x1="0.061897106109324806" y1="0.14716151924516707" x2="0.9904248356713994" y2="0.9865808764728623" gradientTransform="matrix(43.198,0,0,43.886,2.462,2.057)" gradientUnits="userSpaceOnUse"><stop offset="0%" stop-opacity="1" style="stop-color:rgb(22,181,228)"/><stop offset="98.26086956521739%" stop-opacity="1" style="stop-color:rgb(245,32,250)"/></linearGradient><path d=" M 14.211 42.573 L 4.688 45.77 C 2.965 46.349 2.048 45.424 2.643 43.706 L 5.814 34.544 L 5.628 34.226 C 3.728 30.954 2.729 27.243 2.729 23.466 C 2.729 17.79 4.991 12.344 8.998 8.326 C 13.017 4.319 18.462 2.057 24.139 2.057 C 29.475 2.057 34.613 4.055 38.554 7.645 L 38.554 7.645 C 39.451 8.463 39.515 9.853 38.697 10.747 L 38.697 10.747 C 37.879 11.641 36.492 11.702 35.601 10.884 L 35.601 10.884 C 32.461 8.03 28.377 6.449 24.139 6.449 C 19.626 6.449 15.3 8.238 12.106 11.433 C 8.911 14.628 7.121 18.954 7.121 23.466 C 7.121 26.475 7.911 29.417 9.427 32.019 L 10.316 33.919 L 9.427 36.191 L 8.285 39.639 L 12.578 38.607 L 14 38.36 L 14 38.36 L 14 38.36 L 16.52 39.26 C 18.93 40.47 21.59 41.1 24.28 41.1 C 24.97 41.1 25.65 41.06 26.34 40.98 L 26.34 40.98 C 27.433 40.848 28.425 41.629 28.555 42.725 L 28.555 42.725 C 28.685 43.821 27.903 44.818 26.81 44.95 L 26.81 44.95 C 25.97 45.05 25.13 45.1 24.28 45.1 C 20.96 45.1 17.69 44.32 14.72 42.83 L 14.211 42.573 L 14.211 42.573 L 14.211 42.573 L 14.211 42.573 Z  M 40.59 17.47 L 40.59 17.47 C 40.209 16.432 40.742 15.283 41.78 14.905 L 41.78 14.905 C 42.818 14.527 43.969 15.062 44.35 16.1 L 44.35 16.1 C 45.22 18.48 45.66 21.01 45.66 23.55 C 45.67 30.62 42.21 37.25 36.41 41.29 L 36.41 41.29 C 35.505 41.925 34.257 41.705 33.625 40.8 L 33.625 40.8 C 32.993 39.895 33.219 38.645 34.13 38.01 L 34.13 38.01 C 38.85 34.72 41.67 29.31 41.66 23.55 C 41.66 21.48 41.3 19.42 40.59 17.47 L 40.59 17.47 L 40.59 17.47 L 40.59 17.47 Z  M 22.074 23.466 C 22.074 21.811 23.419 20.466 25.074 20.466 C 26.73 20.466 28.074 21.811 28.074 23.466 C 28.074 25.122 26.73 26.466 25.074 26.466 C 23.419 26.466 22.074 25.122 22.074 23.466 L 22.074 23.466 L 22.074 23.466 Z  M 11.594 23.466 C 11.594 21.811 12.939 20.466 14.594 20.466 C 16.25 20.466 17.594 21.811 17.594 23.466 C 17.594 25.122 16.25 26.466 14.594 26.466 C 12.939 26.466 11.594 25.122 11.594 23.466 L 11.594 23.466 Z  M 32.554 23.466 C 32.554 21.811 33.899 20.466 35.554 20.466 C 37.21 20.466 38.554 21.811 38.554 23.466 C 38.554 25.122 37.21 26.466 35.554 26.466 C 33.899 26.466 32.554 25.122 32.554 23.466 Z " fill-rule="evenodd" fill="url(#_lgradient_7)"/></svg>
